polaris-icons/icons/new-icons/CashEuroMajor.svg

<svg width="20" height="20" viewBox="0 0 20 20" fill="none" xmlns="http://www.w3.org/2000/svg">
<path d="M9.76087 7.89279C9.51224 8.04197 9.18115 8.42646 9.0534 9.24964H10.75C11.1642 9.24964 11.5 9.58542 11.5 9.99964C11.5 10.4139 11.1642 10.7496 10.75 10.7496H9.05338C9.1811 11.5729 9.51222 11.9574 9.76086 12.1066C10.0699 12.292 10.4454 12.2437 10.7197 11.9694C11.0126 11.6765 11.4875 11.6765 11.7803 11.9694C12.0732 12.2623 12.0732 12.7372 11.7803 13.03C11.0546 13.7557 9.93011 13.9574 8.98914 13.3929C8.20235 12.9208 7.6857 12.0077 7.5413 10.7496H7.25C6.83579 10.7496 6.5 10.4139 6.5 9.99964C6.5 9.58542 6.83579 9.24964 7.25 9.24964H7.54132C7.68575 7.99165 8.20239 7.0786 8.98913 6.60656C9.93009 6.04197 11.0546 6.24363 11.7803 6.96936C12.0732 7.26226 12.0732 7.73713 11.7803 8.03002C11.4874 8.32291 11.0126 8.32291 10.7197 8.03001C10.4454 7.75573 10.0699 7.70737 9.76087 7.89279Z" fill="#4A4A4A"/>
<path fill-rule="evenodd" clip-rule="evenodd" d="M10 3C6.13401 3 3 6.13401 3 10C3 13.866 6.13401 17 10 17C13.866 17 17 13.866 17 10C17 6.13401 13.866 3 10 3ZM4.5 10C4.5 6.96243 6.96243 4.5 10 4.5C13.0376 4.5 15.5 6.96243 15.5 10C15.5 13.0376 13.0376 15.5 10 15.5C6.96243 15.5 4.5 13.0376 4.5 10Z" fill="#4A4A4A"/>
</svg>

<svg viewBox="0 0 20 20" xmlns="http://www.w3.org/2000/svg"><path d="M9.76 7.893c-.248.149-.579.533-.707 1.357h1.697a.75.75 0 0 1 0 1.5h-1.697c.128.823.46 1.207.708 1.357.309.185.684.137.959-.138a.75.75 0 1 1 1.06 1.061c-.725.726-1.85.927-2.79.363-.788-.472-1.304-1.385-1.449-2.643h-.291a.75.75 0 1 1 0-1.5h.291c.145-1.258.661-2.171 1.448-2.643.941-.565 2.066-.363 2.791.362a.75.75 0 0 1-1.06 1.061c-.275-.274-.65-.323-.96-.137Z" fill="#5C5F62"/><path fill-rule="evenodd" d="M10 3a7 7 0 1 0 0 14 7 7 0 0 0 0-14Zm-5.5 7a5.5 5.5 0 1 1 11 0 5.5 5.5 0 0 1-11 0Z" fill="#5C5F62"/></svg>
